svg/u1f46e_1f3fe_200d_2640.svg

<svg viewBox="0 0 128 128" xmlns="http://www.w3.org/2000/svg">
  <g id="hairGroup">
    <path id="hair" d="M96.64,70.43c5.51-5.92-70.79-5.92-65.28,0c-1.22,4.49-2.01,8.77-2.61,12.24 c-2.38,13.83-0.65,25.66,7.85,34.86c3.69,4,11.43,4.01,11.43,4.01L64,121.53l15.97,0.02c0,0,7.74-0.01,11.43-4.01 c8.49-9.2,10.23-21.03,7.85-34.86C98.65,79.2,97.86,74.93,96.64,70.43z" fill="#3C2C23"/>
    <radialGradient id="hairHighlights_1_" cx="64" cy="44.906" gradientTransform="matrix(1 0 0 -1.1901 0 138.3738)" gradientUnits="userSpaceOnUse" r="34.4541">
      <stop offset="0.7936" stop-color="#554138" stop-opacity="0"/>
      <stop offset="1" stop-color="#554138"/>
    </radialGradient>
    <path id="hairHighlights" d="M95.02,58.1C95,57.84,79.76,53.79,64,49.73 c-15.76,4.06-31,8.11-31.02,8.37c-1.1,16-7.53,26.88-4.4,43.57c1.6,8.52,4.55,11.84,7.31,17.03c1.35,2.57,3.3,4.19,5.19,5.24H64 h22.92c1.89-1.05,3.84-2.67,5.19-5.24c2.76-5.19,5.71-8.51,7.31-17.03C102.55,84.98,96.12,74.1,95.02,58.1z" fill="url(#hairHighlights_1_)"/>
  </g>
  <g id="shirt_x5F_police_2_">
    <linearGradient id="SVGID_1_" gradientTransform="matrix(1 0 0 -1 0 130)" gradientUnits="userSpaceOnUse" x1="64.02" x2="64.02" y1="33.5881" y2="4.3452">
      <stop offset="3.200000e-03" stop-color="#3B78E7"/>
      <stop offset="0.2231" stop-color="#386EDA"/>
      <stop offset="0.6286" stop-color="#3052B8"/>
      <stop offset="1" stop-color="#283593"/>
    </linearGradient>
    <path d="M116.02,120.93v3.01h-104v-3.01c0-6.31,3.27-11.27,8.63-15.05c0.57-0.4,1.17-0.79,1.79-1.17 c0.04-0.02,0.08-0.04,0.11-0.06c1.79-1.09,3.76-2.06,5.89-2.92c0.04-0.02,0.08-0.03,0.12-0.05c0.01,0,0.01-0.01,0.02-0.01 c6.93-2.81,15.45-4.51,24.36-5.26c3.65-0.31,7.37-0.46,11.08-0.47h0.14c3.58,0,7.17,0.16,10.69,0.48 c9.01,0.8,17.61,2.65,24.59,5.56c2.82,1.18,5.38,2.53,7.6,4.06C112.61,109.88,116.02,114.83,116.02,120.93z" fill="url(#SVGID_1_)"/>
  </g>
  <g id="undershirt_2_">
    <polygon fill="#212121" points="64.01,121.88 73.33,104.81 53.43,104.81 "/>
  </g>
  <path id="neck" d="M54.92,86.08v13.98c0,4.51,3.7,8.17,8.26,8.17h1.65c4.56,0,8.26-3.66,8.26-8.17V86.08H64 L54.92,86.08z" fill="#7A4C32"/>
  <path id="ears" d="M91.33,50.43h-7.37H44.04h-7.37c-5.89,0-10.71,5.14-10.71,11.41s4.82,11.41,10.71,11.41 h7.37h39.91h7.37c5.89,0,10.71-5.14,10.71-11.41S97.22,50.43,91.33,50.43z" fill="#7A4C32"/>
  <path id="head" d="M64,16.04L64,16.04L64,16.04c-17.2,0-33.13,12.79-33.13,39.91 c0,21.78,13.49,34.67,25.23,38.83c2.8,0.99,5.5,1.49,7.9,1.49c2.38,0,5.07-0.49,7.85-1.47c11.76-4.14,25.28-17.03,25.28-38.84 C97.13,28.83,81.2,16.04,64,16.04z" fill="#A56C43"/>
  <path id="mouth" d="M72.42,76.14c-3.18,1.89-13.63,1.89-16.81,0c-1.83-1.09-3.7,0.58-2.94,2.24 c0.75,1.63,6.44,5.42,11.37,5.42s10.55-3.79,11.3-5.42C76.09,76.72,74.25,75.05,72.42,76.14z" fill="#473530"/>
  <path id="nose" d="M67.86,68.06c-0.11-0.04-0.21-0.07-0.32-0.08h-7.08c-0.11,0.01-0.22,0.04-0.32,0.08 c-0.64,0.26-0.99,0.92-0.69,1.63c0.3,0.71,1.71,2.69,4.55,2.69s4.25-1.99,4.55-2.69C68.85,68.98,68.5,68.32,67.86,68.06z" fill="#875334"/>
  <g id="eyes">
    <ellipse cx="47.56" cy="58.81" fill="#42312C" rx="4.93" ry="5.1"/>
    <ellipse cx="80.44" cy="58.81" fill="#42312C" rx="4.93" ry="5.1"/>
  </g>
  <g id="eyebrows">
    <path d="M54.8,49.82c-0.93-1.23-3.07-3.01-7.23-3.01s-6.31,1.79-7.23,3.01c-0.41,0.54-0.31,1.17-0.02,1.55 c0.26,0.35,1.04,0.68,1.9,0.39s2.54-1.16,5.35-1.18c2.81,0.02,4.49,0.89,5.35,1.18c0.86,0.29,1.64-0.03,1.9-0.39 C55.1,50.99,55.21,50.36,54.8,49.82z" fill="#42312C"/>
    <path d="M87.67,49.82c-0.93-1.23-3.07-3.01-7.23-3.01c-4.16,0-6.31,1.79-7.23,3.01 c-0.41,0.54-0.31,1.17-0.02,1.55c0.26,0.35,1.04,0.68,1.9,0.39s2.54-1.16,5.35-1.18c2.81,0.02,4.49,0.89,5.35,1.18 c0.86,0.29,1.64-0.03,1.9-0.39C87.97,50.99,88.08,50.36,87.67,49.82z" fill="#42312C"/>
  </g>
  <g id="hair_2_">
    <path d="M103.98,41.47c0-5.25-1.08-34.34-39.91-34.34S24.31,32.94,24.31,42.87 c0,16.47,8.37,25.17,8.37,25.17s-0.1-4.16,0.32-9.1s0.31-11.88,6.4-13.25C61.76,40.65,74.41,28.8,74.41,28.8 c3.29,7.18,13.58,14.19,17.27,16.86c3.03,2.19,4.53,21.79,4.53,21.79S103.98,58.4,103.98,41.47z" fill="#3C2C23"/>
    <radialGradient id="hairHighlights_3_" cx="64.3817" cy="40.58" gradientUnits="userSpaceOnUse" r="38.3405">
      <stop offset="0.7945" stop-color="#554138" stop-opacity="0"/>
      <stop offset="1" stop-color="#554138"/>
    </radialGradient>
    <path id="hairHighlights_2_" d="M103.98,41.47c0-5.25-1.08-34.34-39.91-34.34 S24.31,32.94,24.31,42.87c0,16.47,8.37,25.17,8.37,25.17s-0.1-4.16,0.32-9.1s0.31-11.88,6.4-13.25 C61.76,40.65,74.41,28.8,74.41,28.8c3.29,7.18,13.58,14.19,17.27,16.86c3.03,2.19,4.53,21.79,4.53,21.79S103.98,58.4,103.98,41.47z " fill="url(#hairHighlights_3_)"/>
  </g>
  <g id="epaulets_2_">
    <g id="epaulets_x5F_fill_2_">
      <path d="M107.04,106.04c-0.51,0.82-4.73,6.71-16.85,2.86c-6.96-2.2-13.84-2.81-13.84-2.81 c-2.43-0.68-1.66-8.3-1.5-9.67C87.51,97.55,99.34,100.73,107.04,106.04z" fill="#283593"/>
      <path d="M51.45,106.09c0,0-6.88,0.61-13.84,2.81c-12.26,3.9-16.52-2.31-16.96-3.02 c-0.03-0.05-0.04-0.07-0.04-0.07s0.64-0.43,1.83-1.1c0.04-0.02,0.08-0.04,0.11-0.06c1.35-0.76,3.36-1.82,5.89-2.92 c0.05-0.02,0.09-0.04,0.14-0.06c6.93-2.81,15.45-4.51,24.36-5.26C53.1,97.76,53.87,105.41,51.45,106.09z" fill="#283593"/>
    </g>
  </g>
  <g id="name_x5F_tag_x5F_fill_2_">
    <path d="M45.77,119.65H34.86c-1.2,0-2.17-0.97-2.17-2.17l0,0c0-1.2,0.97-2.17,2.17-2.17h10.92 c1.2,0,2.17,0.97,2.17,2.17l0,0C47.94,118.68,46.97,119.65,45.77,119.65z" fill="#E0E0E0"/>
  </g>
  <g id="patch_2_">
    <g id="patch_x5F_fill_2_">
      <g>
        <linearGradient id="SVGID_2_" gradientTransform="matrix(1 0 0 -1 0 130)" gradientUnits="userSpaceOnUse" x1="116.4018" x2="106.563" y1="11.4765" y2="11.4765">
          <stop offset="4.000000e-03" stop-color="#666666"/>
          <stop offset="0.0985" stop-color="#606060"/>
          <stop offset="0.6803" stop-color="#3F3F3F"/>
          <stop offset="1" stop-color="#333333"/>
        </linearGradient>
        <path d="M113.9,113.11l-5,0.08l-2.34,4.29l4.83,6.46h4.99C116.65,116.57,113.9,113.11,113.9,113.11 z" fill="url(#SVGID_2_)"/>
      </g>
      <g>
        <linearGradient id="SVGID_3_" gradientTransform="matrix(1 0 0 -1 0 130)" gradientUnits="userSpaceOnUse" x1="11.5972" x2="21.436" y1="11.4765" y2="11.4765">
          <stop offset="4.000000e-03" stop-color="#666666"/>
          <stop offset="0.0985" stop-color="#606060"/>
          <stop offset="0.6803" stop-color="#3F3F3F"/>
          <stop offset="1" stop-color="#333333"/>
        </linearGradient>
        <path d="M19.1,113.19l-5-0.08c0,0-2.74,3.46-2.48,10.83h4.99l4.83-6.46L19.1,113.19z" fill="url(#SVGID_3_)"/>
      </g>
    </g>
    <g id="patch_x5F_stroke_2_">
      <path d="M109.35,113.93l4.56-0.08c0.41-0.01,0.74-0.35,0.74-0.76s-0.32-0.71-0.76-0.74l-5.44,0.09 l-3.02,5.55l4.23,5.95h1.84l-4.31-6.05L109.35,113.93z" fill="#BDBDBD"/>
      <path d="M111.86,116.63l3.38-0.14c0.28-0.01,0.49-0.24,0.48-0.52c-0.01-0.28-0.25-0.47-0.52-0.48 l-3.87,0.16l-1.57,2.28l3.95,6.01h1.2l-3.94-5.99L111.86,116.63z" fill="#BDBDBD"/>
      <path d="M19.55,112.45l-5.44-0.09c-0.01,0-0.01,0-0.01,0c-0.41,0-0.74,0.33-0.75,0.74 c-0.01,0.41,0.32,0.76,0.74,0.76l4.57,0.08l2.15,3.96l-4.31,6.05h1.84l4.23-5.95L19.55,112.45z" fill="#BDBDBD"/>
      <path d="M16.67,115.66l-3.87-0.16c-0.28,0.01-0.51,0.2-0.52,0.48c-0.01,0.28,0.2,0.51,0.48,0.52l3.38,0.14 l0.91,1.31l-3.94,5.99h1.2l3.95-6.01L16.67,115.66z" fill="#BDBDBD"/>
    </g>
  </g>
  <g id="lapels_2_">
    <g id="lapels_x5F_fill_2_">
      <polygon fill="#3674CE" points="47.12,97.12 39.12,113.35 49.99,110.08 64.01,121.88 54.9,96.21 "/>
      <polygon fill="#3674CE" points="73.14,96.21 64.04,121.88 78.83,110.24 88.93,113.35 80.93,97.12 "/>
    </g>
  </g>
  <g id="police_x5F_hat_1_">
    <g id="visor">
      <linearGradient id="SVGID_4_" gradientTransform="matrix(1 0 0 -1 0 130)" gradientUnits="userSpaceOnUse" x1="64.268" x2="64.268" y1="105.7158" y2="85.3374">
        <stop offset="4.000000e-03" stop-color="#666666"/>
        <stop offset="0.0985" stop-color="#606060"/>
        <stop offset="0.6803" stop-color="#3F3F3F"/>
        <stop offset="1" stop-color="#333333"/>
      </linearGradient>
      <path d="M64.01,24.18c-32.94,0-38.23,11.14-38.23,11.14s10.15,9.72,38.23,9.9 c28.07-0.19,38.75-10.52,38.75-10.52S96.95,24.18,64.01,24.18z" fill="url(#SVGID_4_)"/>
    </g>
    <linearGradient id="SVGID_5_" gradientTransform="matrix(1 0 0 -1 0 130)" gradientUnits="userSpaceOnUse" x1="64.213" x2="64.213" y1="125.311" y2="95.9288">
      <stop offset="3.200000e-03" stop-color="#3B78E7"/>
      <stop offset="0.0115" stop-color="#3B77E6"/>
      <stop offset="0.2985" stop-color="#335BC2"/>
      <stop offset="0.5675" stop-color="#2D46A8"/>
      <stop offset="0.8091" stop-color="#293998"/>
      <stop offset="1" stop-color="#283593"/>
    </linearGradient>
    <path d="M21.03,34.25c1.68,6.07,3.28,8.64,3.28,8.64c1.7-1.96,11.82-11.1,39.84-11.1 c0.01,0,0.12,0,0.12,0l0,0c0,0,0,0,0.04,0c28.02,0,37.67,9.18,39.38,11.14c0,0,2.03-2.74,3.71-8.81 c3.89-14.05-15.38-29.79-43.12-29.79C36.59,4.34,17.16,20.23,21.03,34.25z" fill="url(#SVGID_5_)"/>
    <path d="M99.55,35.35c-0.21-1.09-0.82-2.07-1.7-2.75c-3.71-2.85-14.79-9.9-33.58-9.9 c-19.27,0-30.06,7.05-33.63,9.9c-0.85,0.68-1.44,1.63-1.64,2.7l-0.01,0.06c-0.25,1.29,0.08,2.51,0.77,3.47 c5.73-3.22,16.34-7.01,34.39-7.01c0.01,0,0.12,0,0.12,0s0,0,0.04,0c18.34,0,28.81,3.93,34.33,7.2 C99.42,38.03,99.81,36.73,99.55,35.35z" fill="#3B78E7"/>
    <path d="M72.02,13.84l-0.31-0.4c-0.14-0.18-0.37-0.29-0.61-0.29c-0.26,0-0.5,0.12-0.64,0.33 c-0.55,0.84-1.36,1.4-2.79,1.4c-1.39,0-2.4-1.28-3.01-2.07c-0.19-0.25-0.49-0.41-0.82-0.41c-0.33,0-0.63,0.16-0.82,0.41 c-0.6,0.79-1.56,2.07-2.95,2.07c-1.43,0-2.24-0.57-2.79-1.4c-0.14-0.21-0.38-0.33-0.64-0.33c-0.24,0-0.47,0.11-0.61,0.29l-0.31,0.4 c-0.37,0.48-0.43,1.12-0.15,1.65c0.42,0.8,0.64,1.68,0.64,2.57v3.48c0,2.54,4.14,7.72,7.65,7.72c3.51,0,7.65-5.18,7.65-7.72v-3.48 c0-0.89,0.22-1.77,0.64-2.57C72.45,14.95,72.39,14.32,72.02,13.84z" fill="#FFCC00"/>
  </g>
</svg>

<svg viewBox="0 0 128 128" xmlns="http://www.w3.org/2000/svg">
  <defs>
    <linearGradient id="SVGID_1_" gradientTransform="matrix(1 0 0 -1 0 0)" gradientUnits="userSpaceOnUse" x1="64.02" x2="64.02" y1="-96.4119" y2="-125.6548">
      <stop offset="3.200000e-03" stop-color="#3B78E7"/>
      <stop offset="0.2231" stop-color="#386EDA"/>
      <stop offset="0.6286" stop-color="#3052B8"/>
      <stop offset="1" stop-color="#283593"/>
    </linearGradient>
    <radialGradient id="hairHighlights_1_" cx="64" cy="-71.364734" gradientTransform="matrix(1 0 0 -1.1901 0 0)" gradientUnits="userSpaceOnUse" r="34.4541">
      <stop offset="0.7936" stop-color="#554138" stop-opacity="0"/>
      <stop offset="1" stop-color="#554138"/>
    </radialGradient>
    <radialGradient id="hairHighlights_3_" cx="64.3817" cy="40.58" gradientUnits="userSpaceOnUse" r="38.3405">
      <stop offset="0.7945" stop-color="#554138" stop-opacity="0"/>
      <stop offset="1" stop-color="#554138"/>
    </radialGradient>
    <linearGradient id="SVGID_5_" gradientTransform="matrix(1 0 0 -1 0 0)" gradientUnits="userSpaceOnUse" x1="64.213" x2="64.213" y1="-4.689" y2="-34.0712">
      <stop offset="3.200000e-03" stop-color="#3B78E7"/>
      <stop offset="0.0115" stop-color="#3B77E6"/>
      <stop offset="0.2985" stop-color="#335BC2"/>
      <stop offset="0.5675" stop-color="#2D46A8"/>
      <stop offset="0.8091" stop-color="#293998"/>
      <stop offset="1" stop-color="#283593"/>
    </linearGradient>
    <linearGradient id="SVGID_4_" gradientTransform="matrix(1 0 0 -1 0 0)" gradientUnits="userSpaceOnUse" x1="64.268" x2="64.268" y1="-24.2842" y2="-44.6626">
      <stop offset="4.000000e-03" stop-color="#666666"/>
      <stop offset="0.0985" stop-color="#606060"/>
      <stop offset="0.6803" stop-color="#3F3F3F"/>
      <stop offset="1" stop-color="#333333"/>
    </linearGradient>
    <linearGradient id="SVGID_2_" gradientTransform="matrix(1 0 0 -1 0 0)" gradientUnits="userSpaceOnUse" x1="116.4018" x2="106.563" y1="-118.5235" y2="-118.5235">
      <stop offset="4.000000e-03" stop-color="#666666"/>
      <stop offset="0.0985" stop-color="#606060"/>
      <stop offset="0.6803" stop-color="#3F3F3F"/>
      <stop offset="1" stop-color="#333333"/>
    </linearGradient>
    <linearGradient id="SVGID_3_" gradientTransform="matrix(1 0 0 -1 0 0)" gradientUnits="userSpaceOnUse" x1="11.5972" x2="21.436" y1="-118.5235" y2="-118.5235">
      <stop offset="4.000000e-03" stop-color="#666666"/>
      <stop offset="0.0985" stop-color="#606060"/>
      <stop offset="0.6803" stop-color="#3F3F3F"/>
      <stop offset="1" stop-color="#333333"/>
    </linearGradient>
  </defs>
  <path id="hair" d="M96.64,70.43 C102.15,64.51 25.85,64.51 31.36,70.43 C30.14,74.92 29.35,79.2 28.75,82.67 C26.37,96.5 28.1,108.33 36.6,117.53 C40.29,121.53 48.03,121.54 48.03,121.54 L64,121.53 L79.97,121.55 C79.97,121.55 87.71,121.54 91.4,117.54 C99.89,108.34 101.63,96.51 99.25,82.68 C98.65,79.2 97.86,74.93 96.64,70.43 Z" fill="#3C2C23"/>
  <path id="hairHighlights" d="M95.02,58.1 C95,57.84 79.76,53.79 64,49.73 C48.24,53.79 33,57.84 32.98,58.1 C31.88,74.1 25.45,84.98 28.58,101.67 C30.18,110.19 33.13,113.51 35.89,118.7 C37.24,121.27 39.19,122.89 41.08,123.94 L64,123.94 L86.92,123.94 C88.81,122.89 90.76,121.27 92.11,118.7 C94.87,113.51 97.82,110.19 99.42,101.67 C102.55,84.98 96.12,74.1 95.02,58.1 Z" fill="url(#hairHighlights_1_)"/>
  <path d="M116.02,120.93 L116.02,123.94 L12.02,123.94 L12.02,120.93 C12.02,114.62 15.29,109.66 20.65,105.88 C21.22,105.48 21.82,105.09 22.44,104.71 C22.48,104.69 22.52,104.67 22.55,104.65 C24.34,103.56 26.31,102.59 28.44,101.73 C28.48,101.71 28.52,101.7 28.56,101.68 C28.57,101.68 28.57,101.67 28.58,101.67 C35.51,98.86 44.03,97.16 52.94,96.41 C56.59,96.1 60.31,95.95 64.02,95.94 L64.16,95.94 C67.74,95.94 71.33,96.1 74.85,96.42 C83.86,97.22 92.46,99.07 99.44,101.98 C102.26,103.16 104.82,104.51 107.04,106.04 C112.61,109.88 116.02,114.83 116.02,120.93 Z" fill="url(#SVGID_1_)"/>
  <path d="M64.01,121.88 L73.33,104.81 L53.43,104.81 Z" fill="#212121"/>
  <path id="neck" d="M54.92,86.08 L54.92,100.06 C54.92,104.57 58.62,108.23 63.18,108.23 L64.83,108.23 C69.39,108.23 73.09,104.57 73.09,100.06 L73.09,86.08 L64,86.08 L54.92,86.08 Z" fill="#7A4C32"/>
  <path id="ears" d="M91.33,50.43 L83.96,50.43 L44.04,50.43 L36.67,50.43 C30.78,50.43 25.96,55.57 25.96,61.84 C25.96,68.11 30.78,73.25 36.67,73.25 L44.04,73.25 L83.95,73.25 L91.32,73.25 C97.21,73.25 102.03,68.11 102.03,61.84 C102.03,55.57 97.22,50.43 91.33,50.43 Z" fill="#7A4C32"/>
  <path id="head" d="M64,16.04 L64,16.04 L64,16.04 C46.8,16.04 30.87,28.83 30.87,55.95 C30.87,77.73 44.36,90.62 56.1,94.78 C58.9,95.77 61.6,96.27 64,96.27 C66.38,96.27 69.07,95.78 71.85,94.8 C83.61,90.66 97.13,77.77 97.13,55.96 C97.13,28.83 81.2,16.04 64,16.04 Z" fill="#A56C43"/>
  <path id="mouth" d="M72.42,76.14 C69.24,78.03 58.79,78.03 55.61,76.14 C53.78,75.05 51.91,76.72 52.67,78.38 C53.42,80.01 59.11,83.8 64.04,83.8 C68.97,83.8 74.59,80.01 75.34,78.38 C76.09,76.72 74.25,75.05 72.42,76.14 Z" fill="#473530"/>
  <path id="nose" d="M67.86,68.06 C67.75,68.02 67.65,67.99 67.54,67.98 L60.46,67.98 C60.35,67.99 60.24,68.02 60.14,68.06 C59.5,68.32 59.15,68.98 59.45,69.69 C59.75,70.4 61.16,72.38 64,72.38 C66.84,72.38 68.25,70.39 68.55,69.69 C68.85,68.98 68.5,68.32 67.86,68.06 Z" fill="#875334"/>
  <path d="M52.49,58.81 A4.93 5.1 0 1 1 42.63,58.81 A4.93 5.1 0 1 1 52.49,58.81 Z" fill="#42312C"/>
  <path d="M85.37,58.81 A4.93 5.1 0 1 1 75.51,58.81 A4.93 5.1 0 1 1 85.37,58.81 Z" fill="#42312C"/>
  <path d="M54.8,49.82 C53.87,48.59 51.73,46.81 47.57,46.81 C43.41,46.81 41.26,48.6 40.34,49.82 C39.93,50.36 40.03,50.99 40.32,51.37 C40.58,51.72 41.36,52.05 42.22,51.76 C43.08,51.47 44.76,50.6 47.57,50.58 C50.38,50.6 52.06,51.47 52.92,51.76 C53.78,52.05 54.56,51.73 54.82,51.37 C55.1,50.99 55.21,50.36 54.8,49.82 Z" fill="#42312C"/>
  <path d="M87.67,49.82 C86.74,48.59 84.6,46.81 80.44,46.81 C76.28,46.81 74.13,48.6 73.21,49.82 C72.8,50.36 72.9,50.99 73.19,51.37 C73.45,51.72 74.23,52.05 75.09,51.76 C75.95,51.47 77.63,50.6 80.44,50.58 C83.25,50.6 84.93,51.47 85.79,51.76 C86.65,52.05 87.43,51.73 87.69,51.37 C87.97,50.99 88.08,50.36 87.67,49.82 Z" fill="#42312C"/>
  <path d="M103.98,41.47 C103.98,36.22 102.9,7.13 64.07,7.13 C25.24,7.13 24.31,32.94 24.31,42.87 C24.31,59.34 32.68,68.04 32.68,68.04 C32.68,68.04 32.58,63.88 33,58.94 C33.42,54 33.31,47.06 39.4,45.69 C61.76,40.65 74.41,28.8 74.41,28.8 C77.7,35.98 87.99,42.99 91.68,45.66 C94.71,47.85 96.21,67.45 96.21,67.45 C96.21,67.45 103.98,58.4 103.98,41.47 Z" fill="#3C2C23"/>
  <path id="hairHighlights_2_" d="M103.98,41.47 C103.98,36.22 102.9,7.13 64.07,7.13 C25.24,7.13 24.31,32.94 24.31,42.87 C24.31,59.34 32.68,68.04 32.68,68.04 C32.68,68.04 32.58,63.88 33,58.94 C33.42,54 33.31,47.06 39.4,45.69 C61.76,40.65 74.41,28.8 74.41,28.8 C77.7,35.98 87.99,42.99 91.68,45.66 C94.71,47.85 96.21,67.45 96.21,67.45 C96.21,67.45 103.98,58.4 103.98,41.47 Z" fill="url(#hairHighlights_3_)"/>
  <path d="M107.04,106.04 C106.53,106.86 102.31,112.75 90.19,108.9 C83.23,106.7 76.35,106.09 76.35,106.09 C73.92,105.41 74.69,97.79 74.85,96.42 C87.51,97.55 99.34,100.73 107.04,106.04 Z" fill="#283593"/>
  <path d="M51.45,106.09 C51.45,106.09 44.57,106.7 37.61,108.9 C25.35,112.8 21.09,106.59 20.65,105.88 C20.62,105.83 20.61,105.81 20.61,105.81 C20.61,105.81 21.25,105.38 22.44,104.71 C22.48,104.69 22.52,104.67 22.55,104.65 C23.9,103.89 25.91,102.83 28.44,101.73 C28.49,101.71 28.53,101.69 28.58,101.67 C35.51,98.86 44.03,97.16 52.94,96.41 C53.1,97.76 53.87,105.41 51.45,106.09 Z" fill="#283593"/>
  <path d="M45.77,119.65 L34.86,119.65 C33.66,119.65 32.69,118.68 32.69,117.48 L32.69,117.48 C32.69,116.28 33.66,115.31 34.86,115.31 L45.78,115.31 C46.98,115.31 47.95,116.28 47.95,117.48 L47.95,117.48 C47.94,118.68 46.97,119.65 45.77,119.65 Z" fill="#E0E0E0"/>
  <path d="M113.9,113.11 L108.9,113.19 L106.56,117.48 L111.39,123.94 L116.38,123.94 C116.65,116.57 113.9,113.11 113.9,113.11 Z" fill="url(#SVGID_2_)"/>
  <path d="M19.1,113.19 L14.1,113.11 C14.1,113.11 11.36,116.57 11.62,123.94 L16.61,123.94 L21.44,117.48 L19.1,113.19 Z" fill="url(#SVGID_3_)"/>
  <path d="M109.35,113.93 L113.91,113.85 C114.32,113.84 114.65,113.5 114.65,113.09 C114.65,112.68 114.33,112.38 113.89,112.35 L108.45,112.44 L105.43,117.99 L109.66,123.94 L111.5,123.94 L107.19,117.89 L109.35,113.93 Z" fill="#BDBDBD"/>
  <path d="M111.86,116.63 L115.24,116.49 C115.52,116.48 115.73,116.25 115.72,115.97 C115.71,115.69 115.47,115.5 115.2,115.49 L111.33,115.65 L109.76,117.93 L113.71,123.94 L114.91,123.94 L110.97,117.95 L111.86,116.63 Z" fill="#BDBDBD"/>
  <path d="M19.55,112.45 L14.11,112.36 C14.1,112.36 14.1,112.36 14.1,112.36 C13.69,112.36 13.36,112.69 13.35,113.1 C13.34,113.51 13.67,113.86 14.09,113.86 L18.66,113.94 L20.81,117.9 L16.5,123.95 L18.34,123.95 L22.57,118 L19.55,112.45 Z" fill="#BDBDBD"/>
  <path d="M16.67,115.66 L12.8,115.5 C12.52,115.51 12.29,115.7 12.28,115.98 C12.27,116.26 12.48,116.49 12.76,116.5 L16.14,116.64 L17.05,117.95 L13.11,123.94 L14.31,123.94 L18.26,117.93 L16.67,115.66 Z" fill="#BDBDBD"/>
  <path d="M47.12,97.12 L39.12,113.35 L49.99,110.08 L64.01,121.88 L54.9,96.21 Z" fill="#3674CE"/>
  <path d="M73.14,96.21 L64.04,121.88 L78.83,110.24 L88.93,113.35 L80.93,97.12 Z" fill="#3674CE"/>
  <path d="M64.01,24.18 C31.07,24.18 25.78,35.32 25.78,35.32 C25.78,35.32 35.93,45.04 64.01,45.22 C92.08,45.03 102.76,34.7 102.76,34.7 C102.76,34.7 96.95,24.18 64.01,24.18 Z" fill="url(#SVGID_4_)"/>
  <path d="M21.03,34.25 C22.71,40.32 24.31,42.89 24.31,42.89 C26.01,40.93 36.13,31.79 64.15,31.79 C64.16,31.79 64.27,31.79 64.27,31.79 L64.27,31.79 C64.27,31.79 64.27,31.79 64.31,31.79 C92.33,31.79 101.98,40.97 103.69,42.93 C103.69,42.93 105.72,40.19 107.4,34.12 C111.29,20.07 92.02,4.33 64.28,4.33 C36.59,4.34 17.16,20.23 21.03,34.25 Z" fill="url(#SVGID_5_)"/>
  <path d="M99.55,35.35 C99.34,34.26 98.73,33.28 97.85,32.6 C94.14,29.75 83.06,22.7 64.27,22.7 C45,22.7 34.21,29.75 30.64,32.6 C29.79,33.28 29.2,34.23 29,35.3 L28.99,35.36 C28.74,36.65 29.07,37.87 29.76,38.83 C35.49,35.61 46.1,31.82 64.15,31.82 C64.16,31.82 64.27,31.82 64.27,31.82 C64.27,31.82 64.27,31.82 64.31,31.82 C82.65,31.82 93.12,35.75 98.64,39.02 C99.42,38.03 99.81,36.73 99.55,35.35 Z" fill="#3B78E7"/>
  <path d="M72.02,13.84 L71.71,13.44 C71.57,13.26 71.34,13.15 71.1,13.15 C70.84,13.15 70.6,13.27 70.46,13.48 C69.91,14.32 69.1,14.88 67.67,14.88 C66.28,14.88 65.27,13.6 64.66,12.81 C64.47,12.56 64.17,12.4 63.84,12.4 C63.51,12.4 63.21,12.56 63.02,12.81 C62.42,13.6 61.46,14.88 60.07,14.88 C58.64,14.88 57.83,14.31 57.28,13.48 C57.14,13.27 56.9,13.15 56.64,13.15 C56.4,13.15 56.17,13.26 56.03,13.44 L55.72,13.84 C55.35,14.32 55.29,14.96 55.57,15.49 C55.99,16.29 56.21,17.17 56.21,18.06 L56.21,21.54 C56.21,24.08 60.35,29.26 63.86,29.26 C67.37,29.26 71.51,24.08 71.51,21.54 L71.51,18.06 C71.51,17.17 71.73,16.29 72.15,15.49 C72.45,14.95 72.39,14.32 72.02,13.84 Z" fill="#FFCC00"/>
</svg>
